Yaru++/devices/16/tablet.svg

<svg height="16" width="16" xmlns="http://www.w3.org/2000/svg">
  <g fill="#808080">
    <path d="m3.994 2c-1.258.015-2.179-.03-2.931.385a1.88 1.88 0 0 0 -.838.998c-.165.439-.225.96-.225 1.617v6c0 .658.06 1.179.225 1.617.164.439.461.79.838.998.752.416 1.673.37 2.931.385h8.012c1.258-.014 2.179.03 2.932-.385a1.88 1.88 0 0 0 .838-.998c.164-.438.224-.96.224-1.617v-6c0-.658-.06-1.178-.225-1.617a1.88 1.88 0 0 0 -.837-.998c-.753-.416-1.674-.37-2.932-.385h-8.008zm.006 1h8c1.259.015 2.087.06 2.453.262.184.101.29.213.387.472.097.26.16.674.16 1.266v6c0 .592-.063 1.006-.16 1.266-.098.26-.203.371-.387.472-.366.202-1.194.247-2.453.262h-8c-1.258-.015-2.09-.06-2.455-.262-.183-.1-.287-.212-.385-.472-.097-.26-.16-.674-.16-1.266v-6c0-.592.063-1.006.16-1.266.098-.26.202-.371.385-.472.365-.202 1.195-.247 2.455-.262z"/>
    <path d="m.5 3.5 1-1h.5v11h-.5l-1-1zm15 0-1-1h-.5v11h.5l1-1z"/>
  </g>
</svg>

<svg xmlns="http://www.w3.org/2000/svg" width="16" height="16">
 <g fill="#808080">
  <path d="M3.994 2c-1.258.015-2.179-.03-2.931.385a1.88 1.88 0 0 0-.838.998C.06 3.822 0 4.343 0 5v6c0 .658.06 1.179.225 1.617.164.439.461.79.838.998.752.416 1.673.37 2.931.385H12.006c1.258-.014 2.179.03 2.932-.385a1.88 1.88 0 0 0 .838-.998c.164-.438.224-.96.224-1.617V5c0-.658-.06-1.178-.225-1.617a1.88 1.88 0 0 0-.837-.998c-.753-.416-1.674-.37-2.932-.385H3.998zM4 3h8c1.259.015 2.087.06 2.453.262.184.101.29.213.387.472.097.26.16.674.16 1.266v6c0 .592-.063 1.006-.16 1.266-.098.26-.203.371-.387.472-.366.202-1.194.247-2.453.262H4c-1.258-.015-2.09-.06-2.455-.262-.183-.1-.287-.212-.385-.472C1.063 12.006 1 11.592 1 11V5c0-.592.063-1.006.16-1.266.098-.26.202-.371.385-.472C1.91 3.06 2.74 3.015 4 3z" color="#000" font-family="sans-serif" font-weight="400" overflow="visible"/>
  <path d="M.5 3.5l1-1H2v11h-.5l-1-1zM15.5 3.5l-1-1H14v11h.5l1-1z"/>
 </g>
</svg>
